!!!!SEGMENT: pl-wtm--a-43-184-99--001-001_stojowski-zygmunt--piec-piesni-op-11-no-1-letni-wieczor.krn
!!!cenid: 18xx:4451
!!!COM: Stojowski, Zygmunt
!!!COM-rismID: pe41019736
!!!CDT: 1870-1946
!!!CNT: Polish
!!!GTL: Pięć pięśni op. 11
!!!OTL: No. 1. Letni wieczór
!!!OMV: 001
!!!PDT: 1895
!!!AGN: Secular: Song
!!!YEC: Copyright 2022 Narodowy Instytut Fryderyka Chopina (https://polishscores.org)
!!!YEM: License CC-BY-4.0 (https://creativecommons.org/licenses/by/4.0)
!!!SMS-siglum: PL-Wtm
!!!SMS-shelfmark: A-43.184/99
!!!SMS-variant:
!!!SMS-altvar:
!!!SMS-shelfwork: 001-001 G
!!!NIFC-rismSourceID: 1001165241
!!!NIFC-rismChildID: 1001165241
!!!NIFC-islandoraID: pl-wtm:43123
!!!URL-pdf-islandora: https://repozytorium.nifc.pl/islandora/object/pl-wtm%3A43123/datastream/PDF/view
!!!URL-scan: https://polish.musicsources.pl/pl/lokalizacje/galeria/druki-muzyczne/22419/4 @EN{Scan on Polish Music Sources Website} @PL{Skany w portalu Dziedzictwo Muzyki Polskiej w otwartym dostępie}
!!!IIIF:
!!!ONB-nifc:
!!!AIN: 1 piano 1 vox
!!!key: f#
**kern	**kern	**fing	**dynam	**kern	**text	**text	**dynam
*part2	*part2	*part2	*part2	*part1	*part1	*part1	*part1
*staff3	*staff2	*	*	*staff1	*staff1	*staff1	*
*I"PIANO.	*I"PIANO.	*	*	*I"CANTO.	*	*	*
*I'[pf]	*I'[pf]	*	*	*I'[V]	*	*	*
*ICklav	*ICklav	*	*	*ICvox	*	*	*
*Ipiano	*Ipiano	*	*	*Ivox	*	*	*
*clefF4	*clefG2	*	*	*clefG2	*	*	*
*k[f#c#g#]	*k[f#c#g#]	*	*	*k[f#c#g#]	*	*	*
*f#:	*f#:	*	*	*f#:	*	*	*
*M2/4	*M2/4	*	*	*M2/4	*	*	*
=1	=1	=1	=1	=1	=1	=1	=1
!	!	!	!	!LO:TX:a:B:t=Andante poco mosso.	!	!	!
8r	4f#~\ 4cc# 4ff#	.	pp	2r	.	.	.
4FF#~/ 4C# 4F#	.	.	.	.	.	.	.
.	4f#~\ 4cc# 4ff#	.	.	.	.	.	.
[8FF#~/ [8C# [8F#	.	.	.	.	.	.	.
=2	=2	=2	=2	=2	=2	=2	=2
8FF#/] 8C#] 8F#]	4f#~\ 4cc# 4ff#	.	.	4r	.	.	.
4FF#~/ 4C# 4F#	.	.	.	.	.	.	.
.	4f#~\ 4cc# 4ff#	.	.	8r	.	.	.
!	!	!	!	!	!	!	!LO:DY:a
[8FF#~/ [8C# [8F#	.	.	.	8cc#\	Już	Le	p
=3	=3	=3	=3	=3	=3	=3	=3
8FF#/] 8C#] 8F#]	(4f#\ 4cc# 4ff#	.	.	8ff#\	za-	cré-	.
4FF#/ 4C# 4F#	.	.	.	8ff#\	-szedł	-pus-	.
.	4e/ [<4a	.	.	8ee\	nad	-cu-	.
[8FF#/ [8C# [8F#	.	.	.	8dd\	do-	-le a-	.
=4	=4	=4	=4	=4	=4	=4	=4
8FF#/] 8C#] 8F#]	4d/ 4a] 4dd	.	.	4ff#\	-li-	-van-	.
4FF#/ 4C# 4F#	.	.	.	.	.	.	.
.	4c#/ 4a	.	.	8cc#\	-ną	-ce	.
[8FF#/ [8C# [8F#	.	.	.	8cc#\	Zło-	mys-	.
!!LO:LB:g=original	!	!	!	!	!	!
=5	=5	=5	=5	=5	=5	=5	=5
8FF#/] 8C#] 8F#]	4B/ 4g#	.	.	8b\	-cis-	-té-	.
4FF#/ 4C# 4F#	.	.	.	8cc#\	-ty	-ri-	.
.	4c#/ 4a	.	.	8a/	słoń-	-eu-	.
[8FF#/ [8C# [8F#	.	.	.	8b\	-ca	-se-	.
=6	=6	=6	=6	=6	=6	=6	=6
8FF#/] 8C#] 8F#]	4B/ 4g#	.	.	[4cc#\	krąg	-ment	.
4FF#/ 4C# 4F#	.	.	.	.	.	.	.
.	4A/) 4f#	.	.	8cc#\]	.	.	.
[8FF#/ [8C# [8F#	.	.	.	8r	.	.	.
=7	=7	=7	=7	=7	=7	=7	=7
*	*^	*	*	*	*	*	*
8FF#/] 8C#] 8F#]	(>4c#/ 4a	4ryy	.	.	4a/	Ci-	An-	.
4FF#/ 4C# 4F#	.	.	.	.	.	.	.	.
.	4g#/	(8e\L	.	.	8g#/	-che	-non-	.
[8FF#/ [8C# [8F#	.	8d\J)	.	.	8f#/	od-	-çant	.
*	*v	*v	*	*	*	*	*	*
=8	=8	=8	=8	=8	=8	=8	=8
8FF#/] 8C#] 8F#]	4c#/ 4a	.	.	8a/	-gło-	du	.
4FF#/ 4C# 4F#	.	.	.	8b\	-sy	si-	.
.	4B/ 4g#	.	.	[4cc#\	pły-	-len-	.
[8FF#/ [8C# [8F#	.	.	.	.	.	.	.
!!LO:LB:g=original	!	!	!	!	!	!
=9	=9	=9	=9	=9	=9	=9	=9
8FF#/] 8C#] 8F#]	4A/ 4f#	.	.	8cc#\]	.	.	.
4FF#/ 4C# 4F#	.	.	.	16cc#\	-ną	-ce	.
!	!	!	!	!LO:TX:a:i:t=pochissmio rit.	!	!	!
.	.	.	.	16cc#\	Z zie-	le	.
!	!LO:TX:b:i:t=pochissmio rit.	!	!	!	!	!	!
.	4c#/ 4a	.	.	8cc#\	-lo-	cal-	.
8FF#/ 8C# 8F#	.	.	.	8ee\	-nych	-me	.
=10	=10	=10	=10	=10	=10	=10	=10
8r	4B/ 4d#X 4a	.	.	8dd#X\	pól	en-	.
8BBB/ 8BB	.	.	.	8b\	i	-chan-	.
!LO:TX:a:i:t=a tempo	!	!	!	!LO:TX:a:i:t=a tempo	!	!	!
8r	4B/ 4e 4g#	.	.	[4ee\	łąk	-te-	.
[8EE/ [8BB	.	.	.	.	.	.	.
=11	=11	=11	=11	=11	=11	=11	=11
8EE/] 8BB]	4B/ 4e 4g#	.	.	2ee\_	.	-ment	.
4EE/ 4BB	.	.	.	.	.	.	.
.	4B/ 4e 4g#	.	.	.	.	.	.
[8EE/ [8BB	.	.	.	.	.	.	.
=12	=12	=12	=12	=12	=12	=12	=12
8EE/] 8BB]	4B/ 4e 4g#	.	.	8ee\]	.	.	.
4EE/ 4BB	.	.	.	8r	.	.	.
.	4B/) 4e 4g#	.	.	8r	.	.	.
[8EE/ [8BB	.	.	.	8e/	Da	Dans	.
!!LO:PB:g=original	!	!	!	!	!	!
=13	=13	=13	=13	=13	=13	=13	=13
*	*^	*	*	*	*	*	*
8EE/] 8BB]	(4g#/	[2B\	.	.	8e/	le-	la	.
4EE/ 4BB	.	.	.	.	8g#/	-kie	plaine	.
.	4f#/	.	.	.	8f#/	lu-	a-	.
[8EE/ [8BB	.	.	.	.	8a/	-dzi	-pai-	.
=14	=14	=14	=14	=14	=14	=14	=14	=14
8EE/] 8BB]	4e/	2B\_	.	.	4b\	gło-	-sé-	.
4EE/ 4BB	.	.	.	.	.	.	.	.
.	4d#X/	.	.	.	8g#/	-sy,	-e	.
[8EE/ [8BB	.	.	.	.	8g#/	da-	mur-	.
=15	=15	=15	=15	=15	=15	=15	=15	=15
8EE/] 8BB]	4dnX/	2B\]	.	.	8g#/	-le-	-mu-	.
4EE/ 4BB	.	.	.	.	8b\	-ki	-rent	.
.	4c#/)	.	.	.	8a/	sły-	mil-	.
[8EE/ [8BB	.	.	.	.	8cc#\	-chać	-le	.
=16	=16	=16	=16	=16	=16	=16	=16	=16
*	*	*^	*	*	*	*	*	*
8EE/] 8BB]	8r	[2B\	8ryy	.	.	[2ee\	śpiew	voix	.
!	!LO:TX:a:i:t=espress.	!	!	!	!	!	!	!	!
4EE/ 4BB	(8e/L	.	[<4.e\	.	.	.	.	.	.
.	8f#/	.	.	.	.	.	.	.	.
[8EE/ [8BB	8g#/J	.	.	.	.	.	.	.	.
!!LO:LB:g=original	!	!	!	!	!	!	!	!
=17	=17	=17	=17	=17	=17	=17	=17	=17	=17
8EE/] 8BB]	8g#/L	8B\] 8e]	4ryy	.	.	2ee\_	.	.	.
4EE/ 4BB	8b/J	[4.b\	.	.	>	.	.	.	.
.	8ee/L	.	[<4ee\	.	.	.	.	.	.
[8EE/ [8BB	16ff#/L	.	.	.	.	.	.	.	.
.	16gg#/JJ	.	.	.	.	.	.	.	.
*	*	*v	*v	*	*	*	*	*	*
=18	=18	=18	=18	=18	=18	=18	=18	=18
4EE/] 4BB]	8ee/L] 8gg#	2b\_	.	]	4ee\]	.	.	.
.	[8bb/J)	.	.	.	.	.	.	.
4r	(16bb/LL]	.	.	.	8r	.	.	.
.	16gg#/	.	.	.	.	.	.	.
.	16bb/	.	.	.	8e/	I	En	.
.	16gg#/JJ	.	.	.	.	.	.	.
=19	=19	=19	=19	=19	=19	=19	=19	=19
4r	16bb/LL	2b\_	.	.	8e/	ci-	per-	.
.	16gg#/	.	.	.	.	.	.	.
.	16bb/	.	.	.	8g#/	-chy	-les	.
.	16gg#/JJ	.	.	.	.	.	.	.
*clefG2	*	*	*	*	*	*	*	*
[4e/ 4f#	16bb/LL	.	.	.	8f#/	sze-	la	.
.	16aa/	.	.	.	.	.	.	.
.	16bb/	.	.	.	8a/	-lest	lo-	.
.	16aa/JJ	.	.	.	.	.	.	.
=20	=20	=20	=20	=20	=20	=20	=20	=20
2e/_ [2g#	16bb/LL	2b\_	.	.	4b\	ro-	-sé-	.
.	16gg#/	.	.	.	.	.	.	.
.	16bb/	.	.	.	.	.	.	.
.	16gg#/JJ	.	.	.	.	.	.	.
.	16bb/LL	.	.	.	8g#/	-sy	-e	.
.	16gg#/	.	.	.	.	.	.	.
.	16bb/	.	.	.	8g#/	Po	vient	.
.	16gg#/JJ	.	.	.	.	.	.	.
=21	=21	=21	=21	=21	=21	=21	=21	=21
4e/] 4g#]	16bb/LL	8b\L]	.	.	8g#/	drżą-	ra-	.
!	!LO:TX:a:i:t=espress.	!	!	!	!	!	!	!
.	16gg#/	.	.	.	.	.	.	.
*	*	*	*below	*	*	*	*	*
.	16bb/	8cc#<~</	1	.	8b\	-cych	-frai-	.
.	16gg#/JJ	.	.	.	.	.	.	.
[4e/ 4f#	16bb/LL	8ee~\	1	.	8cc#\	liś-	-chir	.
.	16aa/	.	.	.	.	.	.	.
.	16bb/	8dd#X~\J	2	.	8dd#X\	-ciach	les	.
.	16aa/JJ	.	.	.	.	.	.	.
=22	=22	=22	=22	=22	=22	=22	=22	=22
2e/_ [2g#	16bb/LL	[2ddn~\	1	.	[4ee\	drzew	bois	.
.	16gg#/	.	.	.	.	.	.	.
.	16bb/	.	.	.	.	.	.	.
.	16gg#/JJ	.	.	.	.	.	.	.
.	16bb/LL	.	.	.	8ee\]	.	.	.
.	16gg#/	.	.	.	.	.	.	.
.	16bb/	.	.	.	8r	.	.	.
.	16gg#/JJ	.	.	.	.	.	.	.
=23	=23	=23	=23	=23	=23	=23	=23	=23
2e/] 2g#]	16bb/LL	2dd\]	.	.	4.r	.	.	.
.	16gg#/	.	.	.	.	.	.	.
.	16bb/	.	.	.	.	.	.	.
.	16gg#/JJ	.	.	.	.	.	.	.
.	16bb/LL	.	.	.	.	.	.	.
.	16gg#/	.	.	.	.	.	.	.
.	16bb/	.	.	.	8ee\	Pro-	U-	.
.	16gg#/JJ)	.	.	.	.	.	.	.
=24	=24	=24	=24	=24	=24	=24	=24	=24
[>2g#/	(16bb/LL	2dd#X\	.	.	8dd#X\	-mie-	-ne	.
.	16gg#/	.	.	.	.	.	.	.
.	16bb/	.	.	.	8dd#\	-ni	sen-	.
.	16gg#/JJ	.	.	.	.	.	.	.
.	16bb/LL	.	.	.	8b\	gra	-teur	.
.	16gg#/	.	.	.	.	.	.	.
.	16bb/	.	.	.	8dd#\	ró-	ex-	.
.	16gg#/JJ	.	.	.	.	.	.	.
!!LO:LB:g=original	!	!	!	!	!	!	!	!
=25	=25	=25	=25	=25	=25	=25	=25	=25
2c#/ 2g#]	16ccc#/LL	2ee\	.	.	4cc#\	-ża-	-qui-	.
.	16gg#/	.	.	.	.	.	.	.
.	16ccc#/	.	.	.	.	.	.	.
.	16gg#/JJ	.	.	.	.	.	.	.
.	16ccc#/LL	.	.	.	8cc#\	-na	-se	.
.	16gg#/	.	.	.	.	.	.	.
.	16ccc#/	.	.	.	8cc#\	to-	de-	.
.	16gg#/JJ)	.	.	.	.	.	.	.
=26	=26	=26	=26	=26	=26	=26	=26	=26
*	*	*	*	*^	*	*	*	*
!	!	!	!	!LO:HP:t=poco cresc.	!	!	!	!	!LO:HP:t=poco cresc.
[2f#/ [2a	(16ccc#/LL	2ee\	.	<	.	8cc#\	-pnie-	-foin	<
.	16aa/	.	.	.	.	.	.	.	.
.	16ccc#/	.	.	.	.	8cc#\	-je	tro-	.
.	16aa/JJ	.	.	.	.	.	.	.	.
.	16ccc#/LL	.	.	.	.	8a/	w si-	-ble	.
.	16aa/	.	.	.	.	.	.	.	.
.	16ccc#/	.	.	.	.	8cc#\	-nej	les	.
.	16aa/JJ	.	.	.	.	.	.	.	.
*	*	*	*	*v	*v	*	*	*	*
=27	=27	=27	=27	=27	=27	=27	=27	=27
2f#/] 2a]	16ccc#/LL	4dd#X~\	.	.	4.cc#\	mgle	sens,	.
.	16aa/	.	.	.	.	.	.	.
.	16ccc#/	.	.	.	.	.	.	.
.	16aa/JJ	.	.	.	.	.	.	.
.	16ccc#/LL	4ddn~\	.	.	.	.	.	.
.	16aa/	.	.	.	.	.	.	.
.	16ccc#/	.	.	.	8cc#\	A	Monte	.
.	16aa/JJ)	.	.	.	.	.	.	.
=28	=28	=28	=28	=28	=28	=28	=28	=28
2e/ 2g#	(16ccc#/LL	2cc#\	.	.	8cc#\	świe-	à	.
.	16gg#/	.	.	.	.	.	.	.
.	16ccc#/	.	.	.	8cc#\	-ży	tra-	.
.	16gg#/JJ	.	.	.	.	.	.	.
!	!	!	!	!	!LO:TX:t=P:problem: w kółku, ołówkiem	!	!	!
.	16ccc#/LL	.	.	.	8g#/	za-	-verss	.
.	16gg#/	.	.	.	.	.	.	.
.	16ccc#/	.	.	.	8cc#\	-pach	la	.
.	16gg#/JJ	.	.	.	.	.	.	.
*clefF4	*	*	*	*	*	*	*	*
!!LO:PB:g=original	!	!	!	!	!	!	!	!
=29	=29	=29	=29	=29	=29	=29	=29	=29
2G#\ 2d#X	16bb/LL	[2b\	.	.	4dd#X\	sia-	bri-	.
.	16gg#/	.	.	.	.	.	.	.
.	16bb/	.	.	.	.	.	.	.
.	16gg#/JJ	.	.	.	.	.	.	.
.	16bb/LL	.	.	.	8b\	-na	-se	.
.	16gg#/	.	.	.	.	.	.	.
.	16bb/	.	.	.	8dd#\	sko-	pa-	.
.	16gg#/JJ)	.	.	.	.	.	.	.
=30	=30	=30	=30	=30	=30	=30	=30	=30
2C#\ 2G#	(16ee#X/LL	2b\]	.	.	8ee#X\	-szo-	-reille	.
.	16cc#/	.	.	.	.	.	.	.
.	16ee#/	.	.	.	8ee#\	-na	au	.
.	16cc#/JJ	.	.	.	.	.	.	.
.	16ee#/LL	.	.	.	8cc#\	łą-	saint	.
.	16cc#/	.	.	.	.	.	.	.
.	16ee#/	.	.	.	8ee#\	-ka	en-	.
.	16cc#/JJ)	.	.	.	.	.	.	.
=31	=31	=31	=31	=31	=31	=31	=31	=31
8FF#/ 8C# 8F#	[2ff#/	(16a\LL	.	mf	[2ff#\	śle	-cens	.
.	.	16f#\	.	.	.	.	.	.
4FF#/ 4C# 4F#	.	16a\	.	.	.	.	.	.
.	.	16f#\JJ	.	.	.	.	.	.
.	.	16a\LL	.	.	.	.	.	.
.	.	16f#\	.	.	.	.	.	.
[8FF#/ [8C# [8F#	.	16a\	.	.	.	.	.	.
.	.	16f#\JJ	.	.	.	.	.	.
=32	=32	=32	=32	=32	=32	=32	=32	=32
!	!	!	!	!LO:HP:t=dim.	!	!	!	!
8FF#/] 8C#] 8F#]	4ff#/]	16a\LL	.	>	2ff#\_	.	.	.
.	.	16f#\	.	.	.	.	.	.
4FF#/ 4C# 4F#	.	16a\	.	.	.	.	.	.
.	.	16f#\JJ	.	.	.	.	.	.
.	4ff#/	16a\LL	.	.	.	.	.	.
.	.	16f#\	.	.	.	.	.	.
[8FF#/ [8C# [8F#	.	16a\	.	.	.	.	.	.
.	.	16f#\JJ)	.	.	.	.	.	.
*	*v	*v	*	*	*	*	*	*
!!LO:LB:g=original	!	!	!	!	!	!	!
=33	=33	=33	=33	=33	=33	=33	=33
8FF#/] 8C#] 8F#]	4f#\ 4cc# 4ff#	.	p	8ff#\]	.	.	.
4FF#/ 4C# 4F#	.	.	.	8r	.	.	.
.	4f#\ 4cc# 4ff#	.	.	4r	.	.	.
[8FF#/ [8C# [8F#	.	.	.	.	.	.	.
=34	=34	=34	=34	=34	=34	=34	=34
8FF#/] 8C#] 8F#]	4f#\ 4cc# 4ff#	.	.	4r	.	.	.
4FF#/ 4C# 4F#	.	.	.	.	.	.	.
.	4f#\ 4cc# 4ff#	.	.	8r	.	.	.
[8FF#/ [8C# [8F#	.	.	.	8cc#\	Wraz	Touf	.
=35	=35	=35	=35	=35	=35	=35	=35
8FF#/] 8C#] 8F#]	(4f#\ 4cc# 4ff#	.	.	8ff#\	z wo-	l'ho-	.
4FF#/ 4C# 4F#	.	.	.	8ff#\	-nią	-ri-	.
.	4e/ [4a	.	.	8ee\	pol-	-zon	.
[8FF#/ [8C# [8F#	.	.	.	8dd\	-nych	s'en-	.
=36	=36	=36	=36	=36	=36	=36	=36
*	*^	*	*	*	*	*	*
8FF#/] 8C#] 8F#]	8a/L]	4d\	.	.	4ff#\	kwia-	-flam-	.
4FF#/ 4C# 4F#	16g#/L	.	.	.	.	.	.	.
.	16f#/JJ	.	.	.	.	.	.	.
.	16e#X/LL	4c#\	.	.	8cc#\	-tów	-me	.
.	16f#/	.	.	.	.	.	.	.
[8FF#/ [8C# [8F#	16g#/	.	.	.	8cc#\	Z ga-	de	.
.	16a/JJ	.	.	.	.	.	.	.
!!LO:LB:g=original	!	!	!	!	!	!	!	!
=37	=37	=37	=37	=37	=37	=37	=37	=37
8FF#/] 8C#] 8F#]	4d/ 4b	4ryy	.	.	8b\	-sną-	pour	.
4FF#/ 4C# 4F#	.	.	.	.	8cc#\	-cym	pre et	.
.	8a/L	4c#\	.	.	8a/	bla-	de	.
[8FF#/ [8C# [8F#	16g#/L	.	.	.	8b\	-skiem	ver-	.
.	16f#/JJ	.	.	.	.	.	.	.
*	*v	*v	*	*	*	*	*	*
=38	=38	=38	=38	=38	=38	=38	=38
8FF#/] 8C#] 8F#]	4B/ 4g#	.	.	[4cc#\	zórz	-meil	.
4FF#/ 4C# 4F#	.	.	.	.	.	.	.
.	4A/) 4f#	.	.	8cc#\]	.	.	.
[8FF#/ [8C# [8F#	.	.	.	8r	.	.	.
=39	=39	=39	=39	=39	=39	=39	=39
*	*^	*	*	*	*	*	*
8FF#/] 8C#] 8F#]	4a/	(8c#\L	.	.	4a/	Ci-	Der-	.
4FF#/ 4C# 4F#	.	16d\L	.	.	.	.	.	.
.	.	16c#\JJ	.	.	.	.	.	.
.	8g#/L	16B#X\LL	.	.	8g#/	-cha	-niers	.
.	.	16c#\	.	.	.	.	.	.
[8FF#/ [8C# [8F#	8f#/J	16d\	.	.	8f#/	po-	re-	.
.	.	16e\JJ)	.	.	.	.	.	.
*	*v	*v	*	*	*	*	*	*
=40	=40	=40	=40	=40	=40	=40	=40
8FF#/] 8C#] 8F#]	4c#/ 4a	.	.	8a/	-e-	-flets	.
4FF#/ 4C# 4F#	.	.	.	8b\	-zya	de	.
.	4Bn/ 4g#	.	.	[4cc#\	świa-	l'â-	.
[8FF#/ [8C# [8F#	.	.	.	.	.	.	.
!!LO:LB:g=original	!	!	!	!	!	!	!
=41	=41	=41	=41	=41	=41	=41	=41
8FF#/] 8C#] 8F#]	4A/ 4f#	.	.	8cc#\]	.	.	.
4FF#/ 4C# 4F#	.	.	.	16cc#\	-tów	-me	.
!	!	!	!	!	!	!	!LO:HP:t=rall. e dim.
.	.	.	.	16cc#\	W głąb	de	>
*	*^	*	*	*	*	*	*
!	!	!	!	!LO:HP:t=rall. e dim.	!	!	!	!
.	(>8a/L	4c#\	.	>	8cc#\	ludz-	l'é-	.
8FF#/ 8C# 8F#	16g#/L	.	.	.	8ee\	-kich	-ter-	.
.	16f#/JJ)	.	.	.	.	.	.	.
*	*v	*v	*	*	*	*	*	*
=42	=42	=42	=42	=42	=42	=42	=42
8r	4B/ 4e 4b	.	.	8dd\	spły-	-nel	.
8GGG#/ 8GG#	.	.	.	8b\	-wa	so-	.
8r	4c#/ 4e 4a 4cc#	.	.	[4ee\	dusz	-leil	.
[8AAA/ [8AA	.	.	.	.	.	.	.
=43	=43	=43	=43	=43	=43	=43	=43
8AAA/L] 8AA]	4c#/ 4e 4a 4cc#	.	.	2ee\_	.	.	.
(16AA/L	.	.	.	.	.	.	.
16GG#/JJ	.	.	.	.	.	.	.
16FF#/LL	4c#/ 4e 4a 4cc#	.	.	.	.	.	.
16GG#/	.	.	.	.	.	.	.
16AA/	.	.	.	.	.	.	.
16BB/JJ)	.	.	.	.	.	.	.
=44	=44	=44	=44	=44	=44	=44	=44
4r	[4c#/ [4e [4a [4cc#	.	pp	4ee\]	.	.	.
4AAA;/ 4AA	4c#;/] 4e] 4a] 4cc#]	.	.	4r;	.	.	.
!!LO:PB:g=original	!	!	!	!	!	!	!
=45	=45	=45	=45	=45	=45	=45	=45
*	*^	*	*	*	*	*	*
!	!LO:TX:a:i:t=un pochettino più mosso	!	!	!	!LO:TX:a:i:t=un pochettino più mosso	!	!	!
(4EE/ 4BB	(4b/	(8gn\L	.	mf <	2r	.	.	.
.	.	16f#\L	.	.	.	.	.	.
.	.	16e\JJ	.	.	.	.	.	.
4GGn/) 4Cn	4a#X/)	16d#X\LL	.	[ >	.	.	.	.
.	.	16e\	.	.	.	.	.	.
.	.	16f#\	.	.	.	.	.	.
.	.	16g\JJ)	.	]	.	.	.	.
=46	=46	=46	=46	=46	=46	=46	=46	=46
(4EE/ 4BB	(4b/	(8gn\L	.	<	4r	.	.	.
.	.	16f#\L	.	.	.	.	.	.
.	.	16e\JJ	.	.	.	.	.	.
4GGn/) 4Cn	4a#X/)	16d#X\LL	.	[ >	8r	.	.	.
.	.	16e\	.	.	.	.	.	.
.	.	16f#\	.	.	8e/	W pół-	Dé-	.
.	.	16g\JJ)	.	]	.	.	.	.
=47	=47	=47	=47	=47	=47	=47	=47	=47
!	!LO:TX:b:i:t=legato sempre	!	!	!	!	!	!	!
4EE/ 4BB	4b/	8gn\L	.	p	8b\	-cie-	-jâ	.
.	.	16f#\L	.	.	8b\	-niu	dans	.
.	.	16e\JJ	.	.	.	.	.	.
4GGn/ 4Cn	4a#X/	16d#X\LL	.	.	8gn/	pierś	la	.
.	.	16e\	.	.	.	.	.	.
.	.	16f#\	.	.	8a#X/	ol-	pé-	.
.	.	16g\JJ	.	.	.	.	.	.
=48	=48	=48	=48	=48	=48	=48	=48	=48
4EE/ 4BB	4b/	8gn\L	.	.	4b\	-brzy-	-nom-	.
.	.	16f#\L	.	.	.	.	.	.
.	.	16e\JJ	.	.	.	.	.	.
4GGn/ 4Cn	4a#X/	16d#X\LL	.	.	8a#X/	-mią	-bre	.
.	.	16e\	.	.	.	.	.	.
.	.	16f#\	.	.	8a#/	Pod-	s'en-	.
.	.	16g\JJ	.	.	.	.	.	.
!!LO:LB:g=original	!	!	!	!	!	!	!	!
=49	=49	=49	=49	=49	=49	=49	=49	=49
4EE/ 4BB	4b/	8gn\L	.	.	8b\	-no-	-dort	.
.	.	16f#\L	.	.	8b\	-szą	le	.
.	.	16e\JJ	.	.	.	.	.	.
4GGn/ 4Cn	4a#X/	16d#X\LL	.	.	8gn/	wi-	pied	.
.	.	16e\	.	.	.	.	.	.
.	.	16f#\	.	.	8a#X/	-dma	des	.
.	.	16g\JJ	.	.	.	.	.	.
=50	=50	=50	=50	=50	=50	=50	=50	=50
4EE/ 4BB	4b/	8gn\L	.	.	(4b\	gór	monts	.
.	.	16f#\L	.	.	.	.	.	.
.	.	16e\JJ	.	.	.	.	.	.
4GGn/ 4Cn	4a#X/	16d#X\LL	.	.	8gn/)	.	.	.
.	.	16e\	.	.	.	.	.	.
.	.	16f#\	.	.	8e/	Noc-	Tan-	.
.	.	16g\JJ	.	.	.	.	.	.
=51	=51	=51	=51	=51	=51	=51	=51	=51
4EE/ 4BB	4b/	8gn\L	.	.	8ee\	-ne-	-dis	.
.	.	16f#\L	.	.	8b\	-mi	que	.
.	.	16e\JJ	.	.	.	.	.	.
4GGn/ 4Cn	4a#X/	16d#X\LL	.	.	8gn/	mgła-	leur	.
.	.	16e\	.	.	.	.	.	.
.	.	16f#\	.	.	8a#X/	-mi	front	.
.	.	16g\JJ	.	.	.	.	.	.
=52	=52	=52	=52	=52	=52	=52	=52	=52
4EE/ 4BB	4b/	8gn\L	.	.	4b\	dy-	som-	.
.	.	16f#\L	.	.	.	.	.	.
.	.	16e\JJ	.	.	.	.	.	.
4GGn/ 4Cn	4a#X/	16d#X\LL	.	.	8a#X/	-mią	-bre	.
.	.	16e\	.	.	.	.	.	.
.	.	16f#\	.	.	8a#/	Wdzie-	est	.
.	.	16g\JJ	.	.	.	.	.	.
!!LO:LB:g=original	!	!	!	!	!	!	!	!
=53	=53	=53	=53	=53	=53	=53	=53	=53
*^	*	*	*	*	*	*	*	*
!	!	!	!	!	!	!	!	!	!LO:DY:a
[2BB/	4DD\	4b/	8f#\L	.	<	8b\	-wa-	ceint	<
.	.	.	16e\L	.	.	8f#/	-ją	d'un	.
.	.	.	16dn\JJ	.	.	.	.	.	.
!	!	!LO:TX:a:i:t=rit.	!	!	!	!LO:TX:a:i:t=rit.	!	!	!
.	8EE\L	4a#X/	16c#\LL	.	.	8gn/	pła-	cas-	[
.	.	.	16d\	.	[	.	.	.	.
.	8GGn\J	.	16d#X\	.	.	8a#X/	-szcze	-que	.
.	.	.	16e\JJ	.	.	.	.	.	.
*v	*v	*	*	*	*	*	*	*	*
=54	=54	=54	=54	=54	=54	=54	=54	=54
2BBB;/ 2FF# 2BB]	[4b/	8e\L	.	.	4.b;\	chmur	d'or	.
.	.	16d#X\L	.	.	.	.	.	.
.	.	16c#\JJ	.	.	.	.	.	.
.	4b;/]	4d#;\	.	.	.	.	.	.
!	!	!	!	!	!LO:TX:a:i:t=a tempo	!	!	!LO:DY:a
.	.	.	.	.	8b\	I	De	p
=55	=55	=55	=55	=55	=55	=55	=55	=55
!	!LO:TX:b:i:t=a tempo	!	!	!	!	!	!	!
4DD/ 4AA	4b/	8fn\L	.	p	8an/	wią-	va-	.
.	.	16e\L	.	.	8a/	-żą	-po-	.
.	.	16d\JJ	.	.	.	.	.	.
4FFn/ 4BB-X	4a#X/	16c#\LL	.	.	8b-X\	swo-	-reux	.
.	.	16dn\	.	.	.	.	.	.
.	.	16e\	.	.	8cc#X\	-je	nu-	.
.	.	16f\JJ	.	.	.	.	.	.
=56	=56	=56	=56	=56	=56	=56	=56	=56
4DD/ 4AA	4a/	8fn\L	.	.	4dd\	skrzy-	-a-	.
.	.	16e\L	.	.	.	.	.	.
.	.	16d\JJ	.	.	.	.	.	.
!	!	!	!	!	!	!	!	!LO:DY:a
4FFn/ 4BB-X	4g#/	16c#\LL	.	.	8cc#\	-dła	-ges	<
.	.	16d\	.	.	.	.	.	.
.	.	16e\	.	.	8cc#\	Po-	s'é-	.
.	.	16f\JJ	.	.	.	.	.	.
!!LO:LB:g=original	!	!	!	!	!	!	!	!
=57	=57	=57	=57	=57	=57	=57	=57	=57
!	!	!	!	!LO:HP:t=poco cresc.	!	!	!	!
4DD/ 4AA	4a/	8fn\L	.	<	8dd\	-dar-	-ten-	.
.	.	16e\L	.	.	8a/	-ty	-dent	[
.	.	16d\JJ	.	.	.	.	.	.
4FFn/ 4BB-X	4g#/	16c#\LL	.	.	8b-X\	kry-	sur	.
.	.	16d\	.	.	.	.	.	.
.	.	16e\	.	.	8cc#X\	-jąc	leur	.
.	.	16f\JJ	.	.	.	.	.	.
=58	=58	=58	=58	=58	=58	=58	=58	=58
4DD/ 4AA	4a/	8fn\L	.	.	4dd\	stok	flanc	.
.	.	16e\L	.	.	.	.	.	.
.	.	16d\JJ	.	.	.	.	.	.
4FFn/ 4BB-X	4g#/	16c#\LL	.	.	8r	.	.	.
.	.	16d\	.	.	.	.	.	.
.	.	16e\	.	.	8dd\	Jak	En	.
.	.	16f\JJ	.	.	.	.	.	.
=59	=59	=59	=59	=59	=59	=59	=59	=59
4DD/ 4AA	4a/	8fn\L	.	.	8dd\	sen-	my-	.
!	!	!	!	!	!	!	!	!LO:DY:a
.	.	16e\L	.	>	8dd\	-se	-sti-	>
.	.	16d\JJ	.	.	.	.	.	.
4CCn/	4g#/	16c#X\LL	.	.	8ee\	ma-	-ques	.
.	.	16d\	.	.	.	.	.	.
.	.	16e\	.	.	8ffn\	-lo-	i-	]
.	.	16f\JJ	.	.	.	.	.	.
=60	=60	=60	=60	=60	=60	=60	=60	=60
!	!LO:TX:a:i:t=poco rit.	!	!	!	!LO:TX:a:i:t=poco rit.	!	!	!LO:DY:a
2BBB/	4.a/	8f#\L	.	]	4.aa\	-wi-	-ma-	pp
.	.	16e\L	.	pp	.	.	.	.
.	.	16d\JJ	.	.	.	.	.	.
.	.	16c#\LL	.	.	.	.	.	.
.	.	16d\	.	.	.	.	.	.
.	8g#/	16e\	.	.	[8dd\	-dła	-ges	.
.	.	16f#\JJ	.	.	.	.	.	.
*	*v	*v	*	*	*	*	*	*
!!LO:LB:g=original	!	!	!	!	!	!	!
=61	=61	=61	=61	=61	=61	=61	=61
2GGG#/ 2GG#	2d/ 2e#X 2b	.	.	4dd\]	.	.	.
.	.	.	.	4dd\	Po-	D'an-	.
=62	=62	=62	=62	=62	=62	=62	=62
4AAA/ 4AA	4c#/ 4f# 4cc#	.	.	8cc#\	-wo-	-ges	.
.	.	.	.	8a/	-li	voi-	.
4BBB/ 4BB	4d/ 4g#	.	.	8g#/	to-	-lés	.
.	.	.	.	8b\	-ną	de	.
=63	=63	=63	=63	=63	=63	=63	=63
*	*^	*	*	*	*	*	*
*	*	*^	*	*	*	*	*	*
!	!LO:TX:a:i:t=a tempo	!	!	!	!	!LO:TX:a:i:t=a tempo	!	!	!
[2CC#/ [2C#	[2g#/	8c#\L	4e#X\	.	< [	4e#X/	w mrok	blanc	.
.	.	(8c#\	.	.	.	.	.	.	.
.	.	8B\	4f#/	.	> ]	4r	.	.	.
!	!LO:TX:i:b:t=rall.	!	!	!	!	!	!	!	!
.	.	8d\J)	.	.	.	.	.	.	.
*	*v	*v	*v	*	*	*	*	*	*
=64	=64	=64	=64	=64	=64	=64	=64
!	!	!	!	!LO:TX:a:i:t=rall.	!	!	!
8CC#/L] 8C#]	2G#/ 2e#X 2g#]	.	.	2r	.	.	.
(8C#/	.	.	.	.	.	.	.
8BB/	.	.	.	.	.	.	.
8D/J)	.	.	.	.	.	.	.
=65	=65	=65	=65	=65	=65	=65	=65
*ped	*	*	*	*	*	*	*
N(16GG#/LL	4ryy	.	.	2r	.	.	.
16E#X/	.	.	.	.	.	.	.
!	!	!	!LO:HP:a	!	!	!	!
16B/	.	.	>	.	.	.	.
NN[<16c#>\JJ	.	.	.	.	.	.	.
4ryy	NN[<16e#X\LL	.	.	.	.	.	.
.	NN[<16b\JJ	.	.	.	.	.	.
*	*Xtuplet	*	*	*	*	*	*
.	NN[>24cc#/LL	.	]	.	.	.	.
.	NN[>24ee#X/	.	.	.	.	.	.
.	NN[>24bb/JJN)	.	.	.	.	.	.
!!LO:LB:g=original	!	!	!	!	!	!	!
=66	=66	=66	=66	=66	=66	=66	=66
*	*^	*	*	*	*	*	*
2ryy	4.cc#/NN] 4.ee#XNN] 4.bbNN] 4.ccc#	4.c#\NN] 4.e#NN] 4.bNN]	.	.	4r	.	.	.
.	.	.	.	.	8r	.	.	.
!	!LO:TX:i:a:t=a tempo	!	!	!	!LO:TX:i:a:t=a tempo	!	!	!
.	8r	8ryy	.	.	8cc#\	Wie-	L'oeu-	pp
=67	=67	=67	=67	=67	=67	=67	=67	=67
2ryy	[<2f#/ [2cc#	4r	.	pp	8ff#\	-czo-	-vre	.
.	.	.	.	.	8ff#\	-ru	du	.
.	.	4g#/ 4b	.	.	8ee\	blask	soir	.
.	.	.	.	.	8dd\	nie-	s'a-	.
=68	=68	=68	=68	=68	=68	=68	=68	=68
2ryy	4f#/] 4a#X 4cc#]	4ryy	.	.	4ff#\	-pew-	-ché-	.
.	4an/	(8f#\L	.	.	8cc#\	-ny	-ve	.
.	.	8e\J)	.	.	8cc#\	O-	dans	.
=69	=69	=69	=69	=69	=69	=69	=69	=69
2ryy	2f#/	(4d#X\	.	.	8b\	-świe-	la	.
.	.	.	.	.	8cc#\	-tla	sé-	.
.	.	4dn\)	.	.	8a/	o-	-ré-	.
.	.	.	.	.	8b\	-braz	-ni-	.
*	*v	*v	*	*	*	*	*	*
=70	=70	=70	=70	=70	=70	=70	=70
4r	NN(2c#/	.	.	4cc#\	ten	-té	.
4A\NN)	.	.	.	4r	.	.	.
=71	=71	=71	=71	=71	=71	=71	=71
*^	*	*	*	*	*	*	*
(4F#/	8F#\L	2r	.	.	4a/	Lu-	L'hom-	.
.	8c#\	.	.	.	.	.	.	.
4ryy	8F#\	.	.	.	8g#/	-dzie	-me	.
.	8c#\J	.	.	.	8f#/	w za-	pour	.
!!LO:LB:g=original	!	!	!	!	!	!	!	!
=72	=72	=72	=72	=72	=72	=72	=72	=72
8F#\L	4ryy	2r	.	.	8a/	-du-	suit	.
8c#\	.	.	.	.	8b\	-mie	son	.
8E\	4E/	.	.	.	[4cc#\	rze-	ré-	.
8c#\J)	.	.	.	.	.	.	.	.
=73	=73	=73	=73	=73	=73	=73	=73	=73
8r	[2F#\	(4a\ 4aa	.	.	2cc#\_	.	.	.
4c#/	.	.	.	.	.	.	.	.
.	.	8g#\L 8gg#	.	.	.	.	.	.
[8c#/	.	8f#\J 8ff#	.	.	.	.	.	.
=74	=74	=74	=74	=74	=74	=74	=74	=74
8c#/]	4F#\]	8a\L 8aa	.	.	4cc#\]	.	.	.
4c#/	.	8b\J 8bb	.	.	.	.	.	.
.	4E\	4cc#\) 4ccc#	.	.	4cc#\	-wnej	-ve	.
8c#/	.	.	.	.	.	.	.	.
*v	*v	*	*	*	*	*	*	*
=75	=75	=75	=75	=75	=75	=75	=75
!	!LO:TX:b:t=morendo	!	!	!	!	!	!
[2D#X\ [2F# [2c#	2r	.	.	8r	.	.	.
!	!	!	!	!LO:TX:a:i:t=morendo	!	!	!
.	.	.	.	8dd#X\	w za-	pour	.
!	!	!	!	!LO:TX:t=P:problem: kółko ołówkiem	!	!	!
.	.	.	.	8ee#X\	-du-	suit	.
.	.	.	.	8ff#\	-mie	son	.
=76	=76	=76	=76	=76	=76	=76	=76
2D#\] 2F#] 2c#]	8r	.	.	4ff#\	rze-	ré-	.
.	4f#/	.	.	.	.	.	.
.	.	.	.	4a/	-wnej	-ve	.
.	[8f#/	.	.	.	.	.	.
=77	=77	=77	=77	=77	=77	=77	=77
2GG#/ 2D#X	2B#X/ 2f#_	.	.	8r	.	.	.
!	!	!	!	!LO:TX:a:t=piękności:color=grey	!	!	!
!	!	!	!	!LO:TX:t=P:problem: ołówkiem	!	!	!
.	.	.	.	8a/	Go-	Dans	.
.	.	.	.	8g#/	-nią	l'i-	.
.	.	.	.	8f#/	pie-	-d'é-	.
=78	=78	=78	=78	=78	=78	=78	=78
*	*^	*	*	*	*	*	*
!	!	!	!	!	!LO:TX:a:t=go-nis:color=grey	!	!	!
!	!	!	!	!	!LO:TX:t=P:problem: ołówkiem	!	!	!
[>2C#/	4f#/]	2Bn\	.	.	(8a/	-kno-	-a-	.
.	.	.	.	.	4cc#\)	.	.	.
.	4e#X/	.	.	.	.	.	.	.
.	.	.	.	.	8cc#\	-ści	-li-	.
*	*v	*v	*	*	*	*	*	*
=79	=79	=79	=79	=79	=79	=79	=79
*^	*	*	*	*	*	*	*
!	!	!	!	!LO:DY:b=2	!	!	!	!
2C#/_	8r	4A/ 4f#	.	pp	[2cc#\	sen	-té.	.
.	(16GG#\LL	.	.	.	.	.	.	.
.	16FF#\JJ	.	.	.	.	.	.	.
.	16EE#X\LL	4A/ 4f#	.	.	.	.	.	.
.	16FF#\	.	.	.	.	.	.	.
.	16GG#\	.	.	.	.	.	.	.
.	16AA\JJ)	.	.	.	.	.	.	.
*v	*v	*	*	*	*	*	*	*
=80	=80	=80	=80	=80	=80	=80	=80
*	*^	*	*	*	*	*	*
8C#/]	4A/ 4f#	4ryy	.	.	2cc#\_	.	.	.
4FF#/ 4C#	.	.	.	.	.	.	.	.
!	!LO:TX:a:i:t=poco rit.	!	!	!	!	!	!	!
.	4A/ [4f#	8r	.	.	.	.	.	.
[8FF#/ [8C#	.	(8c#\	.	.	.	.	.	.
=81	=81	=81	=81	=81	=81	=81	=81	=81
8FF#/] 8C#]	8f#/]	8B\L	.	.	8cc#\]	.	.	.
4FF#/ 4C#	4f#/	8c#\	.	.	8r	.	.	.
.	.	8A\	.	.	4r	.	.	.
[8FF#/ [8C#	[8f#/	8B\J)	.	.	.	.	.	.
=82	=82	=82	=82	=82	=82	=82	=82	=82
*ped	*	*	*	*	*	*	*	*
8FF#/] 8C#]	4f#/]	2c#~\	.	.	2r	.	.	.
8r	.	.	.	.	.	.	.	.
8FFF#/ 8FF#	4r	.	.	.	.	.	.	.
8r	.	.	.	.	.	.	.	.
*	*v	*v	*	*	*	*	*	*
=83	=83	=83	=83	=83	=83	=83	=83
2F#;\ 2c# 2f#	2cc#;\ 2ff# 2ccc#	.	.	2r;	.	.	.
*Xped	*	*	*	*	*	*	*
==	==	==	==	==	==	==	==
*-	*-	*-	*-	*-	*-	*-	*-
!!!system-decoration: s1{(s2,s3)}
!!!RDF**kern: > = above
!!!RDF**kern: < = below
!!!RDF**kern: N = linked
!!!RDF**kern: NN = linked
!!!ENC: Anastazja Marusiak
!!!END: 2023-10-23
!!!EED: Jan Barakat
!!!EEV: 2023-11-10
